outputs/icons/file/cloud_off_round.svg

<svg xmlns="http://www.w3.org/2000/svg" width="1200" height="1200" fill="none"><g clip-path="url(#a)"><path fill="#000" d="M1200.01 750c0-132-102.5-239-232.5-248-34-172.5-185.5-302-367.5-302-66.5 0-128.498 18-182.498 48.5l74.5 74.5c33.498-14.5 69.498-23 107.998-23 152 0 275 123 275 275v25h75c83 0 150 67 150 150 0 49.5-24 92.5-60.5 120l70.5 70.5c54.5-46 90-113.5 90-190.5M185.512 228c-19.5 19.5-19.5 51 0 70.5l103 103h-21C103.511 419-20.489 568.5 3.011 741c20 151 156.501 259 308.001 259H886.51l64.5 64.5c19.5 19.5 51 19.5 70.5 0s19.5-51 0-70.5L256.012 228c-19.501-19.5-51.001-19.5-70.5 0m114.5 672c-110.5 0-200-89.5-200-200s89.5-200 200-200h86.5L786.51 900z"/></g><defs><clipPath id="a"><path fill="#fff" d="M0 0h1200v1200H0z"/></clipPath></defs></svg>

<svg width="1200" height="1200" viewBox="0 0 1200 1200" fill="none" xmlns="http://www.w3.org/2000/svg"><g clip-path="url(#clip0_238_2808)"><path d="M1200 750C1200 618 1097.5 511 967.5 502C933.5 329.5 782 200 600 200C533.5 200 471.499 218 417.499 248.5L491.999 323C525.5 308.5 561.5 300 600 300C752 300 875 423 875 575V600H950C1033 600 1100 667 1100 750C1100 799.5 1076 842.5 1039.5 870L1110 940.5C1164.5 894.5 1200 827 1200 750ZM185.499 228C165.999 247.5 165.999 279 185.499 298.5L288.499 401.5H267.499C103.499 419 -20.501 568.5 2.999 741C22.999 892 159.499 1000 310.999 1000H886.5L951 1064.5C970.5 1084 1002 1084 1021.5 1064.5C1041 1045 1041 1013.5 1021.5 994L255.999 228C236.499 208.5 204.999 208.5 185.499 228ZM299.999 900C189.499 900 99.999 810.5 99.999 700C99.999 589.5 189.499 500 299.999 500H386.499L786.5 900H299.999Z" fill="#1D1E23"/></g><defs><clipPath id="clip0_238_2808"><path width="24" fill="white" d="M0 0H1200V1200H0V0z"/></clipPath></defs></svg>
